public/svg/hero-arrow.svg

<svg width="98" height="98" viewBox="0 0 98 98" fill="none" xmlns="http://www.w3.org/2000/svg">
<path d="M82.3674 28.4167C81.786 27.3567 81.149 26.3277 80.4564 25.333C84.3895 19.3223 88.1429 12.2434 91.6137 4.24501C91.7885 3.84321 92.1086 3.53288 92.5153 3.37608C92.9155 3.21928 93.3549 3.22908 93.7518 3.40711C94.5913 3.77298 94.9572 4.71868 94.5946 5.55984C90.753 14.4043 86.6451 22.0728 82.3674 28.4167Z" fill="#21558A"/>
<path d="M23.7699 65.3578L20.8234 76.3306C20.6862 76.8222 20.7874 77.3514 21.0945 77.7581C21.4032 78.1648 21.885 78.4049 22.3963 78.4049H35.9366C54.292 78.4049 62.395 74.0635 67.9009 69.8152C75.3898 64.0316 80.0954 54.7412 80.1819 45.5716C80.1999 42.7394 79.7801 39.904 78.9341 37.142C78.2154 34.6904 77.1489 32.3237 75.7703 30.1236C73.6748 26.7442 70.9112 23.8548 67.7752 21.7691C59.7196 16.4199 49.1045 15.827 41.3592 20.2942C34.4862 24.2648 33.24 31.0072 34.2608 35.5724C35.4172 40.7468 38.2739 44.2699 42.7476 46.0453C48.8987 48.5165 57.8151 47.1658 64.4284 42.7492C67.7212 40.5524 70.9798 37.5699 74.1354 33.8639C74.6858 34.9501 75.1301 36.0803 75.5139 37.2302C72.5151 40.5753 69.4036 43.3552 66.248 45.4524C61.4231 48.6848 55.3847 50.537 49.6762 50.537C46.6676 50.537 43.9268 50.0486 41.5308 49.0866C36.0721 46.8946 32.4592 42.4716 31.0807 36.2976C29.7087 30.1954 31.8516 22.0092 39.7276 17.4718C48.5329 12.3856 60.528 13.0144 69.5816 19.0349C72.538 20.9981 75.0892 23.4514 77.1652 26.3244C77.1701 26.331 77.1783 26.3326 77.1832 26.3391L77.1766 26.344C78.5519 28.1832 79.7214 30.1775 80.6507 32.2698C82.5127 36.4331 83.4796 41.0391 83.4486 45.5929C83.3555 55.9025 78.2922 65.9197 69.9066 72.3877C63.9466 76.9774 55.2475 81.6699 35.9366 81.6699H22.3963C21.8867 81.6699 21.4048 81.9084 21.0945 82.3167C20.7874 82.7234 20.6862 83.2526 20.8234 83.7443L23.8777 94.6549L3.30421 80.097L23.7682 65.3595L23.7699 65.3578Z" fill="#21558A"/>
</svg>

<svg xmlns="http://www.w3.org/2000/svg" width="98" height="98" fill="none"><path fill="#21558A" d="M82.367 28.417a34 34 0 0 0-1.91-3.084c3.933-6.01 7.686-13.09 11.157-21.088a1.613 1.613 0 0 1 2.138-.838 1.62 1.62 0 0 1 .843 2.153c-3.842 8.844-7.95 16.513-12.228 22.857M23.77 65.358 20.823 76.33a1.635 1.635 0 0 0 1.573 2.074h13.54c18.356 0 26.459-4.341 31.965-8.59 7.489-5.783 12.194-15.074 12.28-24.243a28.2 28.2 0 0 0-1.247-8.43 28.2 28.2 0 0 0-3.164-7.018c-2.095-3.38-4.859-6.27-7.995-8.355-8.055-5.35-18.67-5.942-26.416-1.475-6.873 3.97-8.119 10.713-7.098 15.278 1.156 5.175 4.013 8.698 8.487 10.473 6.15 2.471 15.067 1.12 21.68-3.296 3.293-2.197 6.552-5.18 9.707-8.885a25 25 0 0 1 1.379 3.366c-2.999 3.345-6.11 6.125-9.266 8.222-4.825 3.233-10.863 5.085-16.572 5.085-3.008 0-5.75-.488-8.145-1.45-5.459-2.192-9.072-6.615-10.45-12.79-1.372-6.102.77-14.288 8.647-18.825 8.805-5.086 20.8-4.458 29.854 1.563a29.4 29.4 0 0 1 7.583 7.29c.005.006.013.008.018.014l-.006.005a30.8 30.8 0 0 1 3.474 5.926 32.3 32.3 0 0 1 2.798 13.323c-.093 10.31-5.157 20.327-13.542 26.795-5.96 4.59-14.66 9.282-33.97 9.282h-13.54a1.635 1.635 0 0 0-1.574 2.074l3.055 10.91L3.304 80.098 23.768 65.36z"/></svg>
